_icons/SVG/492-shaymin-land.svg

<svg xmlns="http://www.w3.org/2000/svg" width="32" height="32"><ellipse fill="#FFDA40" cx="12.5" cy="4.725" rx="1.5" ry="1"/><ellipse fill="#FFD400" cx="19.5" cy="4.725" rx="1.5" ry="1"/><ellipse fill="#DADDDC" cx="27" cy="26" rx="4" ry="3"/><ellipse fill="#E3E5E5" cx="5" cy="26" rx="4" ry="3"/><path fill="#E3E5E5" d="M29 21c0 5.523-5.82 9-13 9S3 26.523 3 21 8.82 9 16 9s13 6.477 13 12z"/><path fill="#EDEEEE" d="M16 30c-7.18 0-13-3.477-13-9S8.82 9 16 9v21z"/><ellipse fill="#EDEEEE" cx="16" cy="12" rx="11" ry="8"/><path fill="#F7F7F7" d="M16 20c-6.075 0-11-3.582-11-8s4.925-8 11-8v16z"/><ellipse fill="#349363" cx="12" cy="13" rx="1" ry="2"/><ellipse fill="#338C5D" cx="20" cy="13" rx="1" ry="2"/><ellipse fill="#2B3332" cx="20" cy="13" rx=".5" ry="1"/><ellipse fill="#373F3F" cx="12" cy="13" rx=".5" ry="1"/><path fill="#FFB49F" d="M14.011 16.708a.124.124 0 01.172-.125c.334.142 1.076.417 1.817.417.741 0 1.483-.275 1.817-.417a.124.124 0 01.172.125C17.937 17.308 17.645 19 16 19s-1.937-1.692-1.989-2.292z"/><path fill="#FFC2B1" d="M16 19c-1.645 0-1.937-1.692-1.989-2.292a.124.124 0 01.172-.125c.334.142 1.076.417 1.817.417v2z"/><path fill="#D9F07D" d="M16 1.982C15.079 1.061 14.019.14 11.639 0c-.23-.013-.358.264-.194.427l.899.899c.101.101-.017.262-.145.199-2.268-1.107-4.087-.41-5.238.532-.174.144-.078.429.147.442 1.359.078 2.133.44 2.687 1.178.072.095-.022.227-.136.193-2.008-.597-5.385-.449-7.554 1.011a.256.256 0 00-.102.274c.409 1.551 1.171 2.775 1.782 3.626a.124.124 0 01-.092.197c-1.355.099-2.02.631-3.595 3.804a.253.253 0 00.086.322c1.182.782 1.323.875 2.52.878.11 0 .165.13.091.211-1.606 1.764-1.551 4.176-1.051 6.077.058.221.351.254.464.055.759-1.343 2.904-2.7 3.844-4.894C3.541 11.385 6.611 3.982 16 3.982v-2z"/><path fill="#D9F07D" d="M6 7c1 1 5 3 10 3V3s-6 0-9 3L6 7z"/><path fill="#349363" d="M.038 11.358c-.104-.156.019-.36.206-.378C2.858 10.718 3.169 8 4.677 8c2.279 0 2.977.884 2.977 2 0 1.929-5.592 4.399-7.616 1.358z"/><path fill="#349363" d="M.176 18.316c-.223-.072-.238-.383-.022-.473 2.527-1.059 1.604-2.521 2.384-3.773 1.288-2.069 3.168-1.44 3.693-.455 1.242 2.332-2.046 5.996-6.055 4.701z"/><ellipse transform="rotate(-19.999 8.104 28.867)" fill="#EDEEEE" cx="8.103" cy="28.866" rx="4" ry="3"/><path fill="#FFB0C2" d="M4.866 5.065C2.97 6.108 1.794 10.415 4.995 12c3.124-1.541 2.049-5.813.127-6.931a.262.262 0 00-.256-.004z"/><path fill="#FF97AF" d="M.238 7.015c2.183-.089 5.776 1.634 4.651 4.968C1.39 11.983.09 9.458 0 7.279a.254.254 0 01.238-.264z"/><path fill="#FF97AF" d="M9.752 7.015c-2.183-.088-5.776 1.635-4.65 4.968 3.499 0 4.798-2.525 4.888-4.704a.254.254 0 00-.238-.264z"/><path fill="#FF7898" d="M4.866 17.935c-1.896-1.043-3.072-5.35.129-6.935 3.124 1.541 2.049 5.813.127 6.931a.262.262 0 01-.256.004z"/><path fill="#FF87A4" d="M.239 15.985c2.19.087 5.881-1.652 4.756-4.985-3.499 0-4.897 2.54-4.994 4.72-.006.137.1.259.238.265z"/><path fill="#FF87A4" d="M9.752 15.985C7.561 16.072 3.87 14.333 4.995 11c3.499 0 4.897 2.54 4.994 4.72a.253.253 0 01-.237.265z"/><path fill="#CBEB6B" d="M16 1.982C16.921 1.061 17.981.14 20.361 0c.23-.013.358.264.194.427l-.899.899c-.101.101.017.262.145.199 2.268-1.107 4.087-.41 5.238.532.174.143.079.428-.146.441-1.359.078-2.133.44-2.687 1.178-.072.095.022.227.136.193 2.008-.596 5.385-.448 7.554 1.012a.254.254 0 01.101.274c-.409 1.551-1.171 2.775-1.782 3.626a.124.124 0 00.092.197c1.355.099 2.02.631 3.595 3.804a.253.253 0 01-.086.322c-1.182.782-1.323.875-2.52.878-.11 0-.165.13-.091.211 1.606 1.764 1.551 4.176 1.051 6.077-.058.221-.351.254-.464.055-.759-1.343-2.904-2.7-3.844-4.894C28.459 11.385 25.389 3.982 16 3.982v-2z"/><path fill="#CBEB6B" d="M26 7c-1 1-5 3-10 3V3s6 0 9 3l1 1z"/><ellipse transform="rotate(-70.001 23.897 28.866)" fill="#E3E5E5" cx="23.897" cy="28.866" rx="3" ry="4"/><path fill="#338C5D" d="M31.962 11.358c.104-.156-.019-.36-.206-.378C29.142 10.718 28.831 8 27.323 8c-2.279 0-2.977.884-2.977 2 0 1.929 5.592 4.399 7.616 1.358z"/><path fill="#338C5D" d="M31.824 18.316c.223-.072.238-.383.022-.473-2.527-1.059-1.604-2.521-2.384-3.773-1.288-2.069-3.168-1.44-3.693-.455-1.242 2.332 2.046 5.996 6.055 4.701z"/><path fill="#373F3F" d="M15.404 14a.25.25 0 00-.224.362l.372.744c.092.184.27.276.447.276V14h-.595z"/><path fill="#2B3332" d="M16.596 14H16v1.382a.494.494 0 00.447-.276l.372-.744a.25.25 0 00-.223-.362z"/><path fill="#FF97AF" d="M27.101 5.065c1.897 1.043 3.072 5.349-.129 6.935-3.124-1.541-2.049-5.813-.127-6.931a.262.262 0 01.256-.004z"/><path fill="#FF87A4" d="M31.762 7.015c-2.183-.089-5.776 1.634-4.651 4.968 3.499 0 4.798-2.525 4.888-4.704a.253.253 0 00-.237-.264z"/><path fill="#FF87A4" d="M22.248 7.015c2.183-.089 5.776 1.634 4.651 4.968-3.499 0-4.798-2.525-4.888-4.704a.252.252 0 01.237-.264z"/><path fill="#FF6B8B" d="M27.134 17.935c1.897-1.043 3.072-5.349-.129-6.935-3.124 1.541-2.049 5.813-.127 6.931a.262.262 0 00.256.004z"/><path fill="#FF7898" d="M31.761 15.985c-2.191.088-5.882-1.651-4.756-4.985 3.499 0 4.897 2.54 4.994 4.72a.254.254 0 01-.238.265z"/><path fill="#FF7898" d="M22.248 15.985c2.191.088 5.882-1.651 4.756-4.985-3.499 0-4.897 2.54-4.994 4.72a.254.254 0 00.238.265z"/><ellipse fill="#FFDA40" cx="12.5" cy="4.725" rx="1.5" ry="1"/><ellipse transform="rotate(-45.001 8 6)" fill="#FFDA40" cx="8" cy="6" rx="1" ry=".5"/><ellipse fill="#FFD400" cx="19.5" cy="4.725" rx="1.5" ry="1"/><ellipse transform="rotate(-45.001 24 6)" fill="#FFD400" cx="24" cy="6" rx=".5" ry="1"/></svg>

<?xml version="1.0" encoding="utf-8"?>
<!-- Generator: Adobe Illustrator 23.0.6, SVG Export Plug-In . SVG Version: 6.00 Build 0)  -->
<svg version="1.1" xmlns="http://www.w3.org/2000/svg" xmlns:xlink="http://www.w3.org/1999/xlink" x="0px" y="0px" width="32px"
	 height="32px" viewBox="0 0 32 32" enable-background="new 0 0 32 32" xml:space="preserve">
<g id="labels">
</g>
<g id="icons">
	<g>
		<ellipse fill="#FFDA40" cx="12.5" cy="4.725" rx="1.5" ry="1"/>
		<ellipse fill="#FFD400" cx="19.5" cy="4.725" rx="1.5" ry="1"/>
		<ellipse fill="#DADDDC" cx="27" cy="26" rx="4" ry="3"/>
		<ellipse fill="#E3E5E5" cx="5" cy="26" rx="4" ry="3"/>
		<path fill="#E3E5E5" d="M29,21c0,5.523-5.82,9-13,9S3,26.523,3,21S8.82,9,16,9S29,15.477,29,21z"/>
		<path fill="#EDEEEE" d="M16,30c-7.18,0-13-3.477-13-9S8.82,9,16,9V30z"/>
		<ellipse fill="#EDEEEE" cx="16" cy="12" rx="11" ry="8"/>
		<path fill="#F7F7F7" d="M16,20c-6.075,0-11-3.582-11-8s4.925-8,11-8V20z"/>
		<ellipse fill="#349363" cx="12" cy="13" rx="1" ry="2"/>
		<ellipse fill="#338C5D" cx="20" cy="13" rx="1" ry="2"/>
		<ellipse fill="#2B3332" cx="20" cy="13" rx="0.5" ry="1"/>
		<ellipse fill="#373F3F" cx="12" cy="13" rx="0.5" ry="1"/>
		<path fill="#FFB49F" d="M14.011,16.708c-0.008-0.093,0.086-0.162,0.172-0.125C14.517,16.725,15.259,17,16,17
			c0.741,0,1.483-0.275,1.817-0.417c0.086-0.037,0.18,0.032,0.172,0.125C17.937,17.308,17.645,19,16,19S14.063,17.308,14.011,16.708
			z"/>
		<path fill="#FFC2B1" d="M16,19c-1.645,0-1.937-1.692-1.989-2.292c-0.008-0.093,0.086-0.162,0.172-0.125
			C14.517,16.725,15.259,17,16,17V19z"/>
		<path fill="#D9F07D" d="M16,1.982C15.079,1.061,14.019,0.14,11.639,0c-0.23-0.013-0.358,0.264-0.194,0.427l0.899,0.899
			c0.101,0.101-0.017,0.262-0.145,0.199c-2.268-1.107-4.087-0.41-5.238,0.532C6.787,2.201,6.883,2.486,7.108,2.499
			c1.359,0.078,2.133,0.44,2.687,1.178c0.072,0.095-0.022,0.227-0.136,0.193C7.651,3.273,4.274,3.421,2.105,4.881
			C2.017,4.941,1.976,5.053,2.003,5.155C2.412,6.706,3.174,7.93,3.785,8.781c0.057,0.079,0.006,0.19-0.092,0.197
			c-1.355,0.099-2.02,0.631-3.595,3.804c-0.056,0.113-0.019,0.252,0.086,0.322c1.182,0.782,1.323,0.875,2.52,0.878
			c0.11,0,0.165,0.13,0.091,0.211c-1.606,1.764-1.551,4.176-1.051,6.077c0.058,0.221,0.351,0.254,0.464,0.055
			c0.759-1.343,2.904-2.7,3.844-4.894C3.541,11.385,6.611,3.982,16,3.982V1.982z"/>
		<path fill="#D9F07D" d="M6,7c1,1,5,3,10,3V3c0,0-6,0-9,3C6,7,6,7,6,7z"/>
		<path fill="#349363" d="M0.038,11.358c-0.104-0.156,0.019-0.36,0.206-0.378C2.858,10.718,3.169,8,4.677,8
			c2.279,0,2.977,0.884,2.977,2C7.654,11.929,2.062,14.399,0.038,11.358z"/>
		<path fill="#349363" d="M0.176,18.316c-0.223-0.072-0.238-0.383-0.022-0.473c2.527-1.059,1.604-2.521,2.384-3.773
			c1.288-2.069,3.168-1.44,3.693-0.455C7.473,15.947,4.185,19.611,0.176,18.316z"/>
		<ellipse transform="matrix(0.9397 -0.342 0.342 0.9397 -9.384 4.5121)" fill="#EDEEEE" cx="8.103" cy="28.866" rx="4" ry="3"/>
		<g>
			<path fill="#FFB0C2" d="M4.866,5.065C2.97,6.108,1.794,10.415,4.995,12c3.124-1.541,2.049-5.813,0.127-6.931
				C5.044,5.023,4.945,5.022,4.866,5.065z"/>
			<path fill="#FF97AF" d="M0.238,7.015c2.183-0.089,5.776,1.634,4.651,4.968C1.39,11.983,0.09,9.458,0,7.279
				C-0.005,7.142,0.101,7.021,0.238,7.015z"/>
			<path fill="#FF97AF" d="M9.752,7.015C7.569,6.927,3.976,8.65,5.102,11.983c3.499,0,4.798-2.525,4.888-4.704
				C9.996,7.142,9.889,7.021,9.752,7.015z"/>
			<path fill="#FF7898" d="M4.866,17.935C2.97,16.892,1.794,12.585,4.995,11c3.124,1.541,2.049,5.813,0.127,6.931
				C5.044,17.977,4.945,17.978,4.866,17.935z"/>
			<path fill="#FF87A4" d="M0.239,15.985C2.429,16.072,6.12,14.333,4.995,11c-3.499,0-4.897,2.54-4.994,4.72
				C-0.005,15.857,0.101,15.979,0.239,15.985z"/>
			<path fill="#FF87A4" d="M9.752,15.985C7.561,16.072,3.87,14.333,4.995,11c3.499,0,4.897,2.54,4.994,4.72
				C9.996,15.857,9.889,15.979,9.752,15.985z"/>
		</g>
		<path fill="#CBEB6B" d="M16,1.982C16.921,1.061,17.981,0.14,20.361,0c0.23-0.013,0.358,0.264,0.194,0.427l-0.899,0.899
			c-0.101,0.101,0.017,0.262,0.145,0.199c2.268-1.107,4.087-0.41,5.238,0.532c0.174,0.143,0.079,0.428-0.146,0.441
			c-1.359,0.078-2.133,0.44-2.687,1.178c-0.072,0.095,0.022,0.227,0.136,0.193c2.008-0.596,5.385-0.448,7.554,1.012
			c0.088,0.059,0.128,0.171,0.101,0.274c-0.409,1.551-1.171,2.775-1.782,3.626c-0.057,0.079-0.006,0.19,0.092,0.197
			c1.355,0.099,2.02,0.631,3.595,3.804c0.056,0.113,0.019,0.252-0.086,0.322c-1.182,0.782-1.323,0.875-2.52,0.878
			c-0.11,0-0.165,0.13-0.091,0.211c1.606,1.764,1.551,4.176,1.051,6.077c-0.058,0.221-0.351,0.254-0.464,0.055
			c-0.759-1.343-2.904-2.7-3.844-4.894C28.459,11.385,25.389,3.982,16,3.982V1.982z"/>
		<path fill="#CBEB6B" d="M26,7c-1,1-5,3-10,3V3c0,0,6,0,9,3C26,7,26,7,26,7z"/>
		<ellipse transform="matrix(0.342 -0.9397 0.9397 0.342 -11.401 41.4492)" fill="#E3E5E5" cx="23.897" cy="28.866" rx="3" ry="4"/>
		<path fill="#338C5D" d="M31.962,11.358c0.104-0.156-0.019-0.36-0.206-0.378C29.142,10.718,28.831,8,27.323,8
			c-2.279,0-2.977,0.884-2.977,2C24.346,11.929,29.938,14.399,31.962,11.358z"/>
		<path fill="#338C5D" d="M31.824,18.316c0.223-0.072,0.238-0.383,0.022-0.473c-2.527-1.059-1.604-2.521-2.384-3.773
			c-1.288-2.069-3.168-1.44-3.693-0.455C24.527,15.947,27.815,19.611,31.824,18.316z"/>
		<g>
			<path fill="#373F3F" d="M15.404,14c-0.186,0-0.307,0.196-0.224,0.362l0.372,0.744c0.092,0.184,0.27,0.276,0.447,0.276V14H15.404z
				"/>
			<path fill="#2B3332" d="M16.596,14H16v1.382c0.177,0,0.355-0.092,0.447-0.276l0.372-0.744C16.902,14.196,16.781,14,16.596,14z"/>
		</g>
		<g>
			<path fill="#FF97AF" d="M27.101,5.065c1.897,1.043,3.072,5.349-0.129,6.935c-3.124-1.541-2.049-5.813-0.127-6.931
				C26.923,5.023,27.022,5.022,27.101,5.065z"/>
			<path fill="#FF87A4" d="M31.762,7.015c-2.183-0.089-5.776,1.634-4.651,4.968c3.499,0,4.798-2.525,4.888-4.704
				C32.005,7.142,31.899,7.021,31.762,7.015z"/>
			<path fill="#FF87A4" d="M22.248,7.015c2.183-0.089,5.776,1.634,4.651,4.968c-3.499,0-4.798-2.525-4.888-4.704
				C22.004,7.142,22.111,7.021,22.248,7.015z"/>
			<path fill="#FF6B8B" d="M27.134,17.935c1.897-1.043,3.072-5.349-0.129-6.935c-3.124,1.541-2.049,5.813-0.127,6.931
				C26.956,17.977,27.055,17.978,27.134,17.935z"/>
			<path fill="#FF7898" d="M31.761,15.985c-2.191,0.088-5.882-1.651-4.756-4.985c3.499,0,4.897,2.54,4.994,4.72
				C32.005,15.857,31.899,15.979,31.761,15.985z"/>
			<path fill="#FF7898" d="M22.248,15.985c2.191,0.088,5.882-1.651,4.756-4.985c-3.499,0-4.897,2.54-4.994,4.72
				C22.004,15.857,22.111,15.979,22.248,15.985z"/>
		</g>
		<ellipse fill="#FFDA40" cx="12.5" cy="4.725" rx="1.5" ry="1"/>
		<ellipse transform="matrix(0.7071 -0.7071 0.7071 0.7071 -1.8995 7.4142)" fill="#FFDA40" cx="8" cy="6" rx="1" ry="0.5"/>
		<ellipse fill="#FFD400" cx="19.5" cy="4.725" rx="1.5" ry="1"/>
		<ellipse transform="matrix(0.7071 -0.7071 0.7071 0.7071 2.7868 18.7279)" fill="#FFD400" cx="24" cy="6" rx="0.5" ry="1"/>
	</g>
</g>
</svg>
